X: 22412
T: Ladies In The Salt Pound
R: polka
M: 2/4
K: Gmajor
|:B/c/B/A/ GE|DE GA|B>c BA|GB d2|
B/c/B/A/ GE|DE GA|B>c BA|AG G2:|
|:ef g2|eA A2|B/c/d ef|g2 f/e/d|
ef g2|eA A2|B/c/d ef|1 g2 f/e/d:|2 g2 g2||

